_uploads/dcdw-2020-date.svg

<svg width="84" height="84" viewBox="0 0 84 84" fill="none" xmlns="http://www.w3.org/2000/svg">
<path fill-rule="evenodd" clip-rule="evenodd" d="M60.6389 11H12C5.92487 11 1 15.9249 1 22V72C1 78.0751 5.92487 83 12 83H62C68.0751 83 73 78.0751 73 72V23.3611H74V72C74 78.6274 68.6274 84 62 84H12C5.37258 84 0 78.6274 0 72V22C0 15.3726 5.37258 10 12 10H60.6389V11Z" fill="black"/>
<path fill-rule="evenodd" clip-rule="evenodd" d="M73 0H74V9.29289L80.5711 2.72182L81.2782 3.42893L74.7071 10H84V11H74.7071L81.2782 17.5711L80.5711 18.2782L74 11.7071V21H73V11.7071L66.4289 18.2782L65.7218 17.5711L72.2929 11H63V10H72.2929L65.7218 3.42893L66.4289 2.72182L73 9.29289V0Z" fill="black"/>
</svg>

<svg width="84" height="84" fill="none" xmlns="http://www.w3.org/2000/svg"><path fill-rule="evenodd" clip-rule="evenodd" d="M60.639 11H12C5.925 11 1 15.925 1 22v50c0 6.075 4.925 11 11 11h50c6.075 0 11-4.925 11-11V23.361h1V72c0 6.627-5.373 12-12 12H12C5.373 84 0 78.627 0 72V22c0-6.627 5.373-12 12-12h48.639v1z" fill="#000"/><path fill-rule="evenodd" clip-rule="evenodd" d="M73 0h1v9.293l6.571-6.571.707.707L74.708 10H84v1h-9.293l6.571 6.571-.707.707L74 11.708V21h-1v-9.293l-6.571 6.571-.707-.707L72.292 11H63v-1h9.293l-6.571-6.571.707-.707L73 9.292V0z" fill="#000"/></svg>
